Origami/64x64/apps/wesnoth.svg

<svg width="64" height="64" version="1" xmlns="http://www.w3.org/2000/svg">
 <g transform="matrix(.14521477 0 0 .14745066 6.3945326 9.0029596)" style="opacity:.2">
  <path d="m25.232 41.855c-0.11807 0.4269-0.40348 0.78706-0.40348 1.2451 0 52.278 13.832 112.71 37.954 165.8 19.566 43.069 54.756 100.51 111.25 129.62 0.719 0.37 1.5004 0.55631 2.2864 0.55631s1.5674-0.18631 2.2864-0.55631c56.496-29.106 91.686-86.55 111.25-129.62 24.121-53.094 37.954-113.53 37.954-165.8 0-0.458-0.28541-0.81816-0.40348-1.2451-1.9514 49.319-15.291 104.49-37.55 153.49-19.567 43.069-54.757 100.51-111.25 129.62-0.719 0.37-1.5004 0.55631-2.2864 0.55631s-1.5674-0.18631-2.2864-0.55631c-56.49-29.11-91.681-86.55-111.25-129.62-22.257-48.99-35.596-104.17-37.548-153.48z"/>
 </g>
 <g transform="matrix(.14521477 0 0 .14745066 6.3945326 6.0027599)" style="fill:#4f4f4f">
  <path d="m324.48 51.943-146.49-51.658c-1.076-0.38-2.25-0.38-3.326 0l-146.49 51.658c-1.999 0.705-3.337 2.595-3.337 4.715 0 52.278 13.834 112.71 37.956 165.8 19.566 43.069 54.751 100.52 111.25 129.62 0.719 0.37 1.504 0.555 2.29 0.555s1.571-0.185 2.29-0.555c56.496-29.106 91.68-86.556 111.25-129.62 24.121-53.094 37.955-113.53 37.955-165.8 0-2.12-1.338-4.01-3.337-4.715z" style="fill:#4f4f4f"/>
 </g>
 <g transform="matrix(.07920806 0 0 .07939605 18.032753 19.002062)" style="opacity:.2">
  <path d="m324.48 51.943-146.49-51.658c-1.076-0.38-2.25-0.38-3.326 0l-146.49 51.658c-1.999 0.705-3.337 2.595-3.337 4.715 0 52.278 13.834 112.71 37.956 165.8 19.566 43.069 54.751 100.52 111.25 129.62 0.719 0.37 1.504 0.555 2.29 0.555s1.571-0.185 2.29-0.555c56.496-29.106 91.68-86.556 111.25-129.62 24.121-53.094 37.955-113.53 37.955-165.8 0-2.12-1.338-4.01-3.337-4.715z"/>
 </g>
 <g transform="matrix(.07920806 0 0 .07939605 18.032753 18.002162)" style="fill:#ffb706">
  <path d="m324.48 51.943-146.49-51.658c-1.076-0.38-2.25-0.38-3.326 0l-146.49 51.658c-1.999 0.705-3.337 2.595-3.337 4.715 0 52.278 13.834 112.71 37.956 165.8 19.566 43.069 54.751 100.52 111.25 129.62 0.719 0.37 1.504 0.555 2.29 0.555s1.571-0.185 2.29-0.555c56.496-29.106 91.68-86.556 111.25-129.62 24.121-53.094 37.955-113.53 37.955-165.8 0-2.12-1.338-4.01-3.337-4.715z" style="fill:#ffb706"/>
 </g>
 <path d="m32 6.0039062c-0.082 0-0.164191 0.013017-0.242188 0.041016l-21.273437 7.6171868c-0.289985 0.103994-0.484375 0.382733-0.484375 0.695313 0 0.271989 0.01718 0.552812 0.02734 0.830078 0.05668-0.238906 0.221928-0.441079 0.457031-0.525391l21.273441-7.6171871c0.155993-0.055997 0.328383-0.055997 0.484376 0l21.271484 7.6171871c0.235103 0.08431 0.400346 0.286485 0.457031 0.525391 0.01-0.277266 0.02734-0.558089 0.02734-0.830078 0-0.31258-0.19439-0.591319-0.484375-0.695313l-21.27148-7.6171871c-0.077997-0.0279983-0.160192-0.0410157-0.242188-0.0410157z" style="fill:#ffffff;opacity:.1"/>
 <path d="m21.825692 18.820515 4.595244-2.653066 21.224528 36.761961 1.01871 7.07059-5.613954-4.417524z" style="opacity:.2"/>
 <path d="m21.825692 17.820515 4.595244-2.653066 21.224528 36.761961 1.01871 7.07059-5.613954-4.417524z" style="fill:#ffffff"/>
 <path d="m18.495159 4.0103308c-0.166034 0.020802-0.330013 0.076628-0.484496 0.165816l-2.365478 1.362806c-0.617926 0.3567602-0.8283 1.141284-0.471541 1.7592108l4.000326 6.9254354-3.482149 2.010526c-0.617927 0.356761-0.8283 1.141284-0.47154 1.759211l1.365395 2.365478c0.356761 0.617926 1.141284 0.828302 1.759211 0.471542l11.555347-6.671529c0.617926-0.35676 0.8283-1.141284 0.471542-1.759211l-1.365398-2.365478c-0.35676-0.6179268-1.141284-0.8283014-1.75921-0.471541l-3.479558 2.007936-3.997736-6.9254354c-0.26757-0.4634452-0.776613-0.697176-1.274715-0.6347668z" style="opacity:.2"/>
 <path d="m18.495159 3.009943c-0.166034 0.020802-0.330013 0.076628-0.484496 0.165816l-2.365478 1.362806c-0.617926 0.3567602-0.8283 1.141284-0.471541 1.7592108l4.000326 6.9254352-3.482149 2.010526c-0.617927 0.356761-0.8283 1.141284-0.47154 1.759211l1.365395 2.365478c0.356761 0.617926 1.141284 0.828302 1.759211 0.471542l11.555347-6.671529c0.617926-0.35676 0.8283-1.141284 0.471542-1.759211l-1.365398-2.3654778c-0.35676-0.6179268-1.141284-0.8283014-1.75921-0.471541l-3.479558 2.0079358-3.997736-6.9254352c-0.26757-0.4634452-0.776613-0.697176-1.274715-0.6347668z" style="fill:#3f3f3f"/>
 <path d="M 42.138482,18.820515 37.543238,16.167449 16.31871,52.92941 15.3,60 20.913954,55.582476 Z" style="opacity:.2"/>
 <path d="M 42.138482,17.820515 37.543238,15.167449 16.31871,51.92941 15.3,59 20.913954,54.582476 Z" style="fill:#ffffff"/>
 <path d="m45.469015 4.0103308c0.166034 0.020802 0.330013 0.076628 0.484496 0.165816l2.365478 1.362806c0.617926 0.3567602 0.8283 1.141284 0.471541 1.7592108l-4.000326 6.9254354 3.482149 2.010526c0.617927 0.356761 0.8283 1.141284 0.47154 1.759211l-1.365395 2.365478c-0.356761 0.617926-1.141284 0.828302-1.759211 0.471542l-11.555347-6.671529c-0.617926-0.35676-0.8283-1.141284-0.471542-1.759211l1.365398-2.365478c0.35676-0.6179268 1.141284-0.8283014 1.75921-0.471541l3.479558 2.007936 3.997736-6.9254354c0.26757-0.4634452 0.776613-0.697176 1.274715-0.6347668z" style="opacity:.2"/>
 <path d="m45.469015 3.009943c0.166034 0.020802 0.330013 0.076628 0.484496 0.165816l2.365478 1.362806c0.617926 0.3567602 0.8283 1.141284 0.471541 1.7592108l-4.000326 6.9254352 3.482149 2.010526c0.617927 0.356761 0.8283 1.141284 0.47154 1.759211l-1.365395 2.365478c-0.356761 0.617926-1.141284 0.828302-1.759211 0.471542l-11.555347-6.671529c-0.617926-0.35676-0.8283-1.141284-0.471542-1.759211l1.365398-2.3654778c0.35676-0.6179268 1.141284-0.8283014 1.75921-0.471541l3.479558 2.0079358 3.997736-6.9254352c0.26757-0.4634452 0.776613-0.697176 1.274715-0.6347668z" style="fill:#3f3f3f"/>
</svg>

<svg xmlns="http://www.w3.org/2000/svg" width="64" height="64" version="1">
 <g style="opacity:0.2" transform="matrix(0.14521477,0,0,0.14745066,6.3945326,9.0029596)">
  <path d="m 25.232,41.855 c -0.11807,0.4269 -0.40348,0.78706 -0.40348,1.2451 0,52.278 13.832,112.71 37.954,165.8 19.566,43.069 54.756,100.51 111.25,129.62 0.719,0.37 1.5004,0.55631 2.2864,0.55631 0.786,0 1.5674,-0.18631 2.2864,-0.55631 56.496,-29.106 91.686,-86.55 111.25,-129.62 24.121,-53.094 37.954,-113.53 37.954,-165.8 0,-0.458 -0.28541,-0.81816 -0.40348,-1.2451 -1.9514,49.319 -15.291,104.49 -37.55,153.49 -19.567,43.069 -54.757,100.51 -111.25,129.62 -0.719,0.37 -1.5004,0.55631 -2.2864,0.55631 -0.786,0 -1.5674,-0.18631 -2.2864,-0.55631 -56.49,-29.11 -91.681,-86.55 -111.25,-129.62 -22.257,-48.99 -35.596,-104.17 -37.548,-153.48 z"/>
 </g>
 <g style="fill:#4f4f4f" transform="matrix(0.14521477,0,0,0.14745066,6.3945326,6.0027599)">
  <path style="fill:#4f4f4f" d="M 324.48,51.943 177.99,0.285 c -1.076,-0.38 -2.25,-0.38 -3.326,0 L 28.174,51.943 c -1.999,0.705 -3.337,2.595 -3.337,4.715 0,52.278 13.834,112.71 37.956,165.8 19.566,43.069 54.751,100.52 111.25,129.62 0.719,0.37 1.504,0.555 2.29,0.555 0.786,0 1.571,-0.185 2.29,-0.555 56.496,-29.106 91.68,-86.556 111.25,-129.62 24.121,-53.094 37.955,-113.53 37.955,-165.8 0,-2.12 -1.338,-4.01 -3.337,-4.715 z"/>
 </g>
 <g style="opacity:0.2" transform="matrix(0.07920806,0,0,0.07939605,18.032753,19.002062)">
  <path d="M 324.48,51.943 177.99,0.285 c -1.076,-0.38 -2.25,-0.38 -3.326,0 L 28.174,51.943 c -1.999,0.705 -3.337,2.595 -3.337,4.715 0,52.278 13.834,112.71 37.956,165.8 19.566,43.069 54.751,100.52 111.25,129.62 0.719,0.37 1.504,0.555 2.29,0.555 0.786,0 1.571,-0.185 2.29,-0.555 56.496,-29.106 91.68,-86.556 111.25,-129.62 24.121,-53.094 37.955,-113.53 37.955,-165.8 0,-2.12 -1.338,-4.01 -3.337,-4.715 z"/>
 </g>
 <g style="fill:#ffb706" transform="matrix(0.07920806,0,0,0.07939605,18.032753,18.002162)">
  <path style="fill:#ffb706" d="M 324.48,51.943 177.99,0.285 c -1.076,-0.38 -2.25,-0.38 -3.326,0 L 28.174,51.943 c -1.999,0.705 -3.337,2.595 -3.337,4.715 0,52.278 13.834,112.71 37.956,165.8 19.566,43.069 54.751,100.52 111.25,129.62 0.719,0.37 1.504,0.555 2.29,0.555 0.786,0 1.571,-0.185 2.29,-0.555 56.496,-29.106 91.68,-86.556 111.25,-129.62 24.121,-53.094 37.955,-113.53 37.955,-165.8 0,-2.12 -1.338,-4.01 -3.337,-4.715 z"/>
 </g>
 <path style="opacity:0.1;fill:#ffffff" d="m 32,6.0039062 c -0.082,0 -0.164191,0.013017 -0.242188,0.041016 L 10.484375,13.662109 C 10.19439,13.766103 10,14.044842 10,14.357422 c 0,0.271989 0.01718,0.552812 0.02734,0.830078 0.05668,-0.238906 0.221928,-0.441079 0.457031,-0.525391 L 31.757812,7.0449219 c 0.155993,-0.055997 0.328383,-0.055997 0.484376,0 l 21.271484,7.6171871 c 0.235103,0.08431 0.400346,0.286485 0.457031,0.525391 0.01,-0.277266 0.02734,-0.558089 0.02734,-0.830078 0,-0.31258 -0.19439,-0.591319 -0.484375,-0.695313 L 32.242188,6.0449219 C 32.164191,6.0169236 32.081996,6.0039062 32,6.0039062 Z"/>
 <path style="opacity:0.2" d="M 21.825692,18.820515 26.420936,16.167449 47.645464,52.92941 48.664174,60 43.05022,55.582476 Z"/>
 <path style="fill:#ffffff" d="M 21.825692,17.820515 26.420936,15.167449 47.645464,51.92941 48.664174,59 43.05022,54.582476 Z"/>
 <path style="opacity:0.2" d="m 18.495159,4.0103308 c -0.166034,0.020802 -0.330013,0.076628 -0.484496,0.165816 l -2.365478,1.362806 c -0.617926,0.3567602 -0.8283,1.141284 -0.471541,1.7592108 l 4.000326,6.9254354 -3.482149,2.010526 c -0.617927,0.356761 -0.8283,1.141284 -0.47154,1.759211 l 1.365395,2.365478 c 0.356761,0.617926 1.141284,0.828302 1.759211,0.471542 l 11.555347,-6.671529 c 0.617926,-0.35676 0.8283,-1.141284 0.471542,-1.759211 L 29.006378,10.034138 C 28.649618,9.4162112 27.865094,9.2058366 27.247168,9.562597 L 23.76761,11.570533 19.769874,4.6450976 C 19.502304,4.1816524 18.993261,3.9479216 18.495159,4.0103308 Z"/>
 <path style="fill:#3f3f3f" d="m 18.495159,3.009943 c -0.166034,0.020802 -0.330013,0.076628 -0.484496,0.165816 l -2.365478,1.362806 c -0.617926,0.3567602 -0.8283,1.141284 -0.471541,1.7592108 l 4.000326,6.9254352 -3.482149,2.010526 c -0.617927,0.356761 -0.8283,1.141284 -0.47154,1.759211 l 1.365395,2.365478 c 0.356761,0.617926 1.141284,0.828302 1.759211,0.471542 l 11.555347,-6.671529 c 0.617926,-0.35676 0.8283,-1.141284 0.471542,-1.759211 L 29.006378,9.0337502 C 28.649618,8.4158234 27.865094,8.2054488 27.247168,8.5622092 L 23.76761,10.570145 19.769874,3.6447098 C 19.502304,3.1812646 18.993261,2.9475338 18.495159,3.009943 Z"/>
 <path style="opacity:0.2" d="M 42.138482,18.820515 37.543238,16.167449 16.31871,52.92941 15.3,60 20.913954,55.582476 Z"/>
 <path style="fill:#ffffff" d="M 42.138482,17.820515 37.543238,15.167449 16.31871,51.92941 15.3,59 20.913954,54.582476 Z"/>
 <path style="opacity:0.2" d="m 45.469015,4.0103308 c 0.166034,0.020802 0.330013,0.076628 0.484496,0.165816 l 2.365478,1.362806 c 0.617926,0.3567602 0.8283,1.141284 0.471541,1.7592108 l -4.000326,6.9254354 3.482149,2.010526 c 0.617927,0.356761 0.8283,1.141284 0.47154,1.759211 l -1.365395,2.365478 c -0.356761,0.617926 -1.141284,0.828302 -1.759211,0.471542 L 34.06394,14.158827 c -0.617926,-0.35676 -0.8283,-1.141284 -0.471542,-1.759211 l 1.365398,-2.365478 c 0.35676,-0.6179268 1.141284,-0.8283014 1.75921,-0.471541 l 3.479558,2.007936 3.997736,-6.9254354 c 0.26757,-0.4634452 0.776613,-0.697176 1.274715,-0.6347668 z"/>
 <path style="fill:#3f3f3f" d="m 45.469015,3.009943 c 0.166034,0.020802 0.330013,0.076628 0.484496,0.165816 l 2.365478,1.362806 c 0.617926,0.3567602 0.8283,1.141284 0.471541,1.7592108 l -4.000326,6.9254352 3.482149,2.010526 c 0.617927,0.356761 0.8283,1.141284 0.47154,1.759211 l -1.365395,2.365478 c -0.356761,0.617926 -1.141284,0.828302 -1.759211,0.471542 L 34.06394,13.158439 c -0.617926,-0.35676 -0.8283,-1.141284 -0.471542,-1.759211 l 1.365398,-2.3654778 c 0.35676,-0.6179268 1.141284,-0.8283014 1.75921,-0.471541 L 40.196564,10.570145 44.1943,3.6447098 c 0.26757,-0.4634452 0.776613,-0.697176 1.274715,-0.6347668 z"/>
</svg>
